resources/svg/shift.svg

<svg viewBox="0 0 24 24"><path fill="none" stroke="currentColor" stroke-width="2" d="M12 0v24M2 12h10m10 0H12M6 8l-4 4l4 4m12-8l4 4l-4 4"/></svg>

<svg xmlns="http://www.w3.org/2000/svg" viewBox="0 0 24 24" fill="currentColor"><path fill="none" stroke="currentColor" stroke-width="2" d="M12,0 L12,24 M2,12 L12,12 M22,12 L12,12 M6,8 L2,12 L6,16 M18,8 L22,12 L18,16"/></svg>
